X:1
T:Satisfied with Jesus
T:Satisfied with Jesus
T:Rollin Chauncey Ward
T:Cary Lincoln Eby, 1900
T:Public Domain Courtesy of the Cyber Hymnal™
T:Public Domain Courtesy of the Cyber Hymnal™
C:Rollin Chauncey Ward
Z:Public Domain
Z:Courtesy of the Cyber Hymnal™
%%score ( 1 2 ) ( 3 4 )
L:1/8
Q:1/4=105
M:4/4
K:Eb
V:1 treble 
V:2 treble 
V:3 bass 
V:4 bass 
V:1
 [EB][EB][EA][EA] [EG][EG][EF][EF] | E2 [EG]2 [GB]4 | [Ec][EB][DA][EG] [DF]3 z | %3
w: 1.~Sa- tis- fied with Je- sus is my|soul to- day;|I am sa- tis- fied,|
w: 2.~Once I walked in dark- ness, un- der|sin’s con- trol;|Now I’m sa- tis- fied,|
w: 3.~Sa- tis- fied with Je- sus, now my|soul can sing,|“I am sa- tis- fied,|
w: 4.~Sa- tis- fied with Je- sus, oh, the|peace, how sweet!|I am sa- tis- fied,|
 [DB][FA][EG][DF] [EG]3 z | [EB][EB][EA][EA] [EG][EG][EF][EF] | E2 [EG]2 (B2 e2) | %6
w: ful- ly sa- tis- fied.|I have been re- deemed, and now my|soul can say, *|
w: ful- ly sa- tis- fied.|Since the light from Heav- en streams in-|to my soul, *|
w: ful- ly sa- tis- fied.”|Hap- py in the love of Christ my|Lord and King, *|
w: ful- ly sa- tis- fied.|Trust- ing in the prom- ise till His|face I greet; *|
 [Fd][Fd][Fd][Fe] [Fd]2 [Ec]2 | [DB]6 ||"^Refrain" [EB]2 | [Ge][Ge][Ge][Ge] [Ed]2 [Ec]2 | %10
w: “I am ful- ly sa- tis-|fied.”|||
w: “I am ful- ly sa- tis-|fied.”|||
w: “I am ful- ly sa- tis-|fied.”|My|soul is full of joy, and|
w: “I am ful- ly sa- tis-|fied.”|||
 B6 [EB]2 | [Ec][Ec][EB][EB] [DA]2 [EG]2 | F2 B4 !fermata![FA]2 | [EG][EG][EG][EG] [DA]2 [EB]2 | %14
w: ||||
w: ||||
w: peace, To|praise my God I can- not|cease. He heard|me when to Him I cried,|
w: ||||
 c4 [Ae]2 (dc) | [GB][Ac][GB][FA] [EG]2 [B,F]2 | [B,E]6 |] %17
w: |||
w: |||
w: And now my *|soul is sa- tis- fied. *||
w: |||
V:2
 x8 | E2 x6 | x8 | x8 | x8 | E2 G4 x2 | x8 | x6 || x2 | x8 | (E2 D2 E2) x2 | x8 | (DE FG A2) x2 | %13
 x8 | (E2 E2 ^F2) x2 | x8 | x6 |] %17
V:3
 [E,G,][E,G,][E,C][E,C] [E,B,][E,B,][E,A,][E,A,] | [E,G,]2 [E,B,]2 [E,E]4 | %2
 [A,E][G,E][F,B,][E,B,] [B,,B,]3 z | [B,,F,][B,,B,][B,,B,][B,,B,] [E,B,]3 z | %4
 [E,G,][E,G,][E,C][E,C] [E,B,][E,B,][E,A,][E,A,] | [E,G,]2 [E,B,]2 (E2 B,2) | %6
 [F,B,][F,B,][F,B,][F,C] [F,B,]2 [F,=A,]2 | [B,,B,]6 || [E,G,]2 | %9
 [E,B,][E,B,][E,B,][E,B,] A,2 A,2 | ([E,G,]2 [F,B,]2 [G,B,]2) [E,G,]2 | %11
 A,A,[G,B,][G,B,] [F,B,]2 [E,B,]2 | ([B,,B,]2 [B,,B,]2 [B,,B,]2) [D,B,]2 | %13
 [E,B,][E,B,][E,B,][E,B,] [F,B,]2 [G,B,]2 | A,2 _A,2 !fermata![_A,C]2 [=A,C]2 | %15
 [B,E][B,E][B,E]B, [B,,B,]2 [B,,A,]2 | [E,G,]6 |] %17
V:4
 x8 | x8 | x8 | x8 | x8 | x4 E,4 | x8 | x6 || x2 | x4 (A,,B,,) (C,D,) | x8 | A,A, x6 | x8 | x8 | %14
 =A,2 =A,2 x4 | x3 B, x4 | x6 |] %17

